X: 68
T:Chwi Bechgyn Glan Fri
M:6/8
L:1/8
Q:130
C:Trad
S:Blodau'r Grug Collection Vol. 2
R:jig
A:Wales
Z:brian_martin12345@yahoo.com
K:D
A|dAA BGG|ABA f2e|dAA BGG|Adc d2A|dAA BGG|ABA f2e|!dAA BGG|Adc d2||]
e|fef gfg|agf g2e|fed eAA|!ABA f2e|dAA A2d|BGG G2E|FGA BAG|Adc d2:||

